X:1
T:Old Granite Stat:e -- Reel
R:reel
C:O. DENSMORE.
B:Ryan's Mammoth Collection
N: 377
Z: Contributed by Ray Davies,  ray:davies99.freeserve.co.uk
M:2/4
L:1/16
K:A
uE2|\
"1"A2vAf ecBc | "1"A2af ecBc | FGAB .c2(fg) | afge (cf).f2 |
agaf ed"4"ec | BAcA (FA).E2 | FGAB .c2"1"f2 | ecBc A2:|
|:uc2|\
vf2vfug (aga).f | (e^de).f ecBA | (e^de).f ecBA | {c}BAcB AFFE |
{B}AEAB cAce | feaf e2z2 | u{efg}a2vFG .A2"1"c2 | BAGB A2:|
